X:295
T: Tullagh
S: Darley & McCall Collection
Z: B.Black
L: 1/8
M: 4/4
R: reel
K: Ador
AE (3EEE cABG|EGDB, G,2 DB,|A,B,A,G, A,2 A,2|1\
AcBG ABcB :|2 AcBG ABcd ||
ea (3aaa agef|geaf gedB|Aa (3aaa agef|gedB BA A2|
ea (3aaa agef|geaf gedB|(3ABc BG Aaaf|gedB cABG||
